X: 05052
T: LORRAINE'S HORNPIPE
C: Bob McQuillen 11 May 81
B: Bob's Note Book 5 #52
%R: hornpipe
Z: 2021 John Chambers <jc:trillian.mit.edu>
M: C
L: 1/8
K: Em
B>d \
| e>de>g | a>ga>b | g>ag>e d2B2 | b>ag>b a>ge>g | d2B2 B2B>d |
| e>de>g | a>ga>b | g>ba>b g2e2 | g>ba>g e>dB>A | B2e2 e2 :|
|: e>f \
| g>fe>f g>fe>g | f>gf>e d2B2 | e>ge>d B>A (3(Bcd) | e2A2 A2G>A |
| B>ed>B A>GB>A | G>AG>E D>B,D>E | G>AB>e d>BA>B | G2E2 E2 :|
%%begintext align
%% It's always such a
%% joy when Lorraine and Rick Lee are around.
%% The music they produce is such fun. When
%% Lorraine sings with that dulcimer, it's like being
%% transported into a whole new and
%% beautiful world.
%%endtext

%%sep 1 1 500

%%sep 1 1 500

